X: 8660
T: Crosses Of Annagh, The
R: reel
M: 4/4
K: Adorian
|:eAAG A2(3Bcd|e~g3 edBA|~G3B A~E3|DEGB AGED|
(3EFG BG A2(3Bcd|e~g3 edBA|GABd gedB|GABG ABcd:|
|:e~a3 bage|aeba gedB|dBde ~g2bg|agba ~g2fg|
e~a3 bage|aeba gedB|GABd gedB|GABG ABcd:|

